X:1
T:We’ll Outshine the Sun
T:We’ll Outshine the Sun
T:Aarranged by Arthur Forrest  Ingler
T:C. F. W., 1902
T:Public Domain Courtesy of the Cyber Hymnal™
C:Aarranged by Arthur Forrest  Ingler
Z:Public Domain
Z:Courtesy of the Cyber Hymnal™
%%score ( 1 2 ) 3
L:1/8
Q:1/4=110
M:4/4
K:F
V:1 treble 
V:2 treble 
V:3 bass 
V:1
 !fermata![Fc]2 | [Fc][FA][FA][FA] [FA][CG][CF][CG] | [FA] [FA]2 [CG] [CF]2 [CF][CF] | %3
w: 1.~If|Je- sus leads this ar- my, We will|out- shine the sun, We will|
w: 2.~If|we keep on a pray- ing, We will|out- shine the sun, We will|
w: 3.~If|we keep on be- liev- ing, We will|out- shine the sun, We will|
w: 4.~If|we stay clean and hum- ble, We will|out- shine the sun, We will|
w: 5.~If|Je- sus keeps us pol- ished, We will|out- shine the sun, We will|
w: 6.~If|we keep on a- shout- ing, We will|out- shine the sun, We will|
w: 7.~Keep|win- ning souls for Je- sus, We will|out- shine the sun, We will|
 [EG] [EG]2 [EA] [EG]2 F[EG] | [FA] [FA]2 [FG] F2 !fermata![Fc]2 | [Fc][FA][FA][FA] [FA][CG] | %6
w: out- shine the sun, We will|out- shine the sun; If|Je- sus leads this ar- my,|
w: out- shine the sun, We will|out- shine the sun; If|we keep on a pray- ing,|
w: out- shine the sun, We will|out- shine the sun; If|we keep on be- liev- ing,|
w: out- shine the sun, We will|out- shine the sun; If|we stay clean and hum- ble,|
w: out- shine the sun, We will|out- shine the sun; If|Je- sus keeps us pol- ished,|
w: out- shine the sun, We will|out- shine the sun; If|we keep on a- shout- ing,|
w: out- shine the sun, We will|out- shine the sun; Keep|win- ning souls for Je- sus,|
 [CF][CG] | [FA] [FA]2 [CG] [CF]2 [CF][CF] | [EG]>[EG] [EG]F [CA]2 [B,G]2 | [A,F]6 |] %10
w: We will|out- shine the sun, And we’ll|walk the gold- en streets on|high.|
w: We will|out- shine the sun, And we’ll|walk the gold- en streets on|high.|
w: We will|out- shine the sun, And we’ll|walk the gold- en streets on|high.|
w: We will|out- shine the sun, And we’ll|walk the gold- en streets on|high.|
w: We will|out- shine the sun, And we’ll|walk the gold- en streets on|high.|
w: We will|out- shine the sun, And we’ll|walk the gold- en streets on|high.|
w: We will|out- shine the sun, And we’ll|walk the gold- en streets on|high.|
V:2
 x2 | x8 | x8 | x6 F x | x4 F2 x2 | x6 | x2 | x8 | x3 F x4 | x6 |] %10
V:3
 !fermata![F,A,]2 | [F,A,][F,C][F,C][F,C] [F,C][F,B,][F,A,][F,B,] | %2
 [F,C] [F,C]2 [F,B,] [F,A,]2 [F,A,][F,A,] | [C,B,] [C,B,]2 [C,C] [C,B,]2 [C,A,][C,B,] | %4
 [F,C] [F,C]2 [F,B,] [F,A,]2 !fermata![F,A,]2 | [F,A,][F,C][F,C][F,C] [F,C][F,B,] | [F,A,][F,B,] | %7
 [F,C] [F,C]2 [F,B,] [F,A,]2 [F,A,][F,A,] | [C,B,]>[C,B,] [C,B,][C,A,] [C,F,C]2 [C,E,]2 | %9
 [F,,C,F,]6 |] %10

